svg/rust.svg

<svg viewBox="0 0 20 20" xmlns="http://www.w3.org/2000/svg">
<rect width="100%" height="100%" fill="black"/>
<path d="M18.3572 9.73967L17.573 9.25513L18.2467 8.61759C18.2846 8.58211 18.3129 8.53755 18.3289 8.4881C18.3449 8.43865 18.3481 8.38594 18.338 8.33494C18.3277 8.28353 18.3045 8.23555 18.2707 8.19544C18.2369 8.15533 18.1936 8.12437 18.1446 8.10543L17.2946 7.78453L17.8301 7.03648C17.8612 6.99414 17.8808 6.94454 17.8871 6.89244C17.8934 6.84034 17.8862 6.78748 17.8662 6.73895C17.8457 6.69072 17.8134 6.64847 17.7721 6.61614C17.7309 6.58381 17.6821 6.56245 17.6304 6.55407L16.7229 6.40531L17.1033 5.568C17.1253 5.52021 17.1347 5.46758 17.1306 5.41513C17.1265 5.36268 17.1091 5.31215 17.0799 5.26835C17.049 5.22436 17.0069 5.18937 16.958 5.16697C16.9091 5.14457 16.8551 5.13555 16.8015 5.14084L15.8814 5.17484L16.0939 4.27803C16.1063 4.22699 16.1054 4.1736 16.0912 4.12301C16.0771 4.07242 16.0501 4.02633 16.0129 3.98918C15.9758 3.95203 15.9297 3.92507 15.8791 3.9109C15.8285 3.89673 15.7751 3.89581 15.7241 3.90825L14.8273 4.12077L14.8613 3.20058C14.863 3.1484 14.8514 3.09666 14.8276 3.05019C14.8038 3.00373 14.7686 2.96407 14.7253 2.93493C14.6814 2.906 14.631 2.8885 14.5787 2.88405C14.5264 2.87959 14.4737 2.88832 14.4256 2.90943L13.5883 3.29196L13.4396 2.38239C13.4309 2.33094 13.4092 2.28253 13.3767 2.24172C13.3442 2.20091 13.3018 2.16902 13.2536 2.14906C13.2054 2.12909 13.1529 2.1217 13.101 2.12757C13.0492 2.13344 12.9997 2.15239 12.9571 2.18263L12.2091 2.71817L11.8861 1.85748C11.8678 1.80851 11.8374 1.76503 11.7976 1.73118C11.7578 1.69733 11.7099 1.67423 11.6587 1.66409C11.6074 1.6541 11.5543 1.65723 11.5046 1.67321C11.4548 1.68918 11.4098 1.71748 11.3739 1.75547L10.7364 2.42702L10.2625 1.64497C10.2348 1.60061 10.1962 1.56403 10.1505 1.53867C10.1048 1.51331 10.0534 1.5 10.0011 1.5C9.94877 1.5 9.89734 1.51331 9.85161 1.53867C9.80588 1.56403 9.76736 1.60061 9.73967 1.64497L9.25513 2.42915L8.61759 1.75547C8.58296 1.71884 8.53981 1.69133 8.49198 1.67539C8.44416 1.65944 8.39313 1.65556 8.34344 1.66409C8.29203 1.67447 8.24405 1.69762 8.20394 1.73142C8.16383 1.76522 8.13287 1.80857 8.11393 1.85748L7.79303 2.71817L7.04498 2.1805C7.00245 2.15026 6.95293 2.13132 6.90108 2.12544C6.84922 2.11957 6.79672 2.12697 6.74851 2.14693C6.70029 2.1669 6.65794 2.19878 6.62541 2.2396C6.59289 2.28041 6.57127 2.32881 6.56257 2.38027L6.41381 3.28983L5.5765 2.90731C5.52839 2.8862 5.47577 2.87747 5.42343 2.88192C5.37109 2.88638 5.32069 2.90387 5.27685 2.93281C5.23322 2.96213 5.19782 3.00213 5.17402 3.049C5.15021 3.09587 5.13879 3.14805 5.14084 3.20058L5.17484 4.12077L4.27803 3.90825C4.22699 3.89581 4.1736 3.89673 4.12301 3.9109C4.07242 3.92507 4.02633 3.95203 3.98918 3.98918C3.95203 4.02633 3.92507 4.07242 3.9109 4.12301C3.89673 4.1736 3.89581 4.22699 3.90825 4.27803L4.12077 5.17484L3.20058 5.14084C3.14834 5.13875 3.09644 5.15016 3.04991 5.17399C3.00337 5.19782 2.96377 5.23325 2.93493 5.27685C2.906 5.32069 2.8885 5.37109 2.88405 5.42343C2.87959 5.47577 2.88832 5.52839 2.90943 5.5765L3.29196 6.41381L2.38239 6.56257C2.33094 6.57127 2.28253 6.59289 2.24172 6.62541C2.20091 6.65794 2.16902 6.70029 2.14906 6.74851C2.12909 6.79672 2.1217 6.84922 2.12757 6.90108C2.13344 6.95293 2.15239 7.00245 2.18263 7.04498L2.72029 7.79303L1.85748 8.11393C1.80857 8.13287 1.76522 8.16383 1.73142 8.20394C1.69762 8.24405 1.67447 8.29203 1.66409 8.34344C1.65407 8.39444 1.6572 8.44715 1.67319 8.4966C1.68918 8.54605 1.7175 8.59061 1.75547 8.62609L2.42915 9.26363L1.64497 9.73967C1.60061 9.76736 1.56403 9.80588 1.53867 9.85161C1.51331 9.89734 1.5 9.94877 1.5 10.0011C1.5 10.0534 1.51331 10.1048 1.53867 10.1505C1.56403 10.1962 1.60061 10.2348 1.64497 10.2625L2.42915 10.747L1.75547 11.3845C1.71914 11.4194 1.69184 11.4626 1.67592 11.5103C1.66 11.5581 1.65594 11.609 1.66409 11.6587C1.67423 11.7099 1.69733 11.7578 1.73118 11.7976C1.76503 11.8374 1.80851 11.8678 1.85748 11.8861L2.71817 12.2091L2.1805 12.9571C2.15026 12.9997 2.13132 13.0492 2.12544 13.101C2.11957 13.1529 2.12697 13.2054 2.14693 13.2536C2.1669 13.3018 2.19878 13.3442 2.2396 13.3767C2.28041 13.4092 2.32881 13.4309 2.38027 13.4396L3.28983 13.5883L2.90731 14.4256C2.8862 14.4737 2.87747 14.5264 2.88192 14.5787C2.88638 14.631 2.90387 14.6814 2.93281 14.7253C2.96213 14.7689 3.00213 14.8043 3.049 14.8281C3.09587 14.8519 3.14805 14.8633 3.20058 14.8613L4.12077 14.8273L3.90825 15.7241C3.89581 15.7751 3.89673 15.8285 3.9109 15.8791C3.92507 15.9297 3.95203 15.9758 3.98918 16.0129C4.02633 16.0501 4.07242 16.0771 4.12301 16.0912C4.1736 16.1054 4.22699 16.1063 4.27803 16.0939L5.17484 15.8814L5.14084 16.8015C5.13879 16.854 5.15029 16.9061 5.17421 16.9529C5.19814 16.9996 5.23369 17.0394 5.27745 17.0685C5.32122 17.0975 5.37171 17.1148 5.42408 17.1187C5.47646 17.1225 5.52894 17.1129 5.5765 17.0906L6.41381 16.7102L6.56257 17.6176C6.56924 17.6712 6.58982 17.7222 6.62224 17.7654C6.65467 17.8087 6.69784 17.8427 6.74746 17.8641C6.79598 17.8841 6.84884 17.8913 6.90094 17.885C6.95304 17.8786 7.00265 17.859 7.04498 17.828L7.79303 17.2925L8.11393 18.1425C8.13287 18.1914 8.16383 18.2348 8.20394 18.2686C8.24405 18.3024 8.29203 18.3255 8.34344 18.3359C8.39444 18.3459 8.44715 18.3428 8.4966 18.3268C8.54605 18.3108 8.59061 18.2825 8.62609 18.2445L9.26363 17.5709L9.74817 18.355C9.77586 18.3994 9.81438 18.436 9.86011 18.4613C9.90584 18.4867 9.95727 18.5 10.0096 18.5C10.0619 18.5 10.1133 18.4867 10.159 18.4613C10.2047 18.436 10.2433 18.3994 10.271 18.355L10.7555 17.5709L11.393 18.2445C11.429 18.2825 11.4739 18.3108 11.5237 18.3268C11.5735 18.3428 11.6265 18.3459 11.6778 18.3359C11.7291 18.3258 11.7769 18.3027 11.8167 18.2688C11.8565 18.235 11.887 18.1915 11.9052 18.1425L12.2282 17.2925L12.9763 17.828C13.0186 17.859 13.0682 17.8786 13.1203 17.885C13.1724 17.8913 13.2253 17.8841 13.2738 17.8641C13.322 17.8436 13.3643 17.8112 13.3966 17.77C13.4289 17.7287 13.4503 17.68 13.4587 17.6282L13.6074 16.7208L14.4448 17.1012C14.4918 17.1211 14.5431 17.1289 14.594 17.1238C14.6449 17.1188 14.6937 17.1011 14.7359 17.0724C14.7782 17.0436 14.8126 17.0047 14.836 16.9593C14.8593 16.9138 14.871 16.8633 14.8698 16.8122L14.8358 15.892L15.7326 16.1045C15.7836 16.1169 15.837 16.116 15.8876 16.1019C15.9382 16.0877 15.9843 16.0607 16.0214 16.0236C16.0586 15.9864 16.0856 15.9403 16.0997 15.8897C16.1139 15.8392 16.1148 15.7858 16.1024 15.7347L15.8899 14.8379L16.81 14.8719C16.8611 14.8731 16.9117 14.8615 16.9572 14.8381C17.0026 14.8147 17.0415 14.7803 17.0702 14.7381C17.099 14.6958 17.1167 14.647 17.1217 14.5961C17.1267 14.5453 17.119 14.494 17.0991 14.4469L16.7187 13.6096L17.6261 13.4608C17.6806 13.4508 17.7314 13.4264 17.7732 13.3902C17.8151 13.3539 17.8465 13.3071 17.8641 13.2547C17.8843 13.2062 17.8916 13.1533 17.8853 13.1011C17.879 13.049 17.8592 12.9994 17.828 12.9571L17.2925 12.2091L18.1425 11.8861C18.1915 11.8678 18.235 11.8374 18.2688 11.7976C18.3027 11.7578 18.3258 11.7099 18.3359 11.6587C18.3459 11.6074 18.3428 11.5543 18.3268 11.5046C18.3108 11.4548 18.2825 11.4098 18.2445 11.3739L17.5709 10.7364L18.355 10.2518C18.3994 10.2241 18.436 10.1856 18.4613 10.1399C18.4867 10.0942 18.5 10.0427 18.5 9.99044C18.5 9.93815 18.4867 9.88672 18.4613 9.84099C18.436 9.79526 18.3994 9.75673 18.355 9.72904L18.3572 9.73967ZM9.97556 3.04757H10.0011C10.1357 3.04953 10.264 3.10463 10.3582 3.20086C10.4523 3.2971 10.5046 3.42665 10.5036 3.56127C10.5027 3.69589 10.4485 3.82466 10.353 3.91951C10.2574 4.01436 10.1283 4.06758 9.99362 4.06758C9.859 4.06758 9.72983 4.01436 9.63429 3.91951C9.53875 3.82466 9.48458 3.69589 9.4836 3.56127C9.48262 3.42665 9.5349 3.2971 9.62905 3.20086C9.7232 3.10463 9.85158 3.04953 9.98619 3.04757H9.97556ZM3.48747 8.08843C3.48747 7.95541 3.54031 7.82784 3.63437 7.73379C3.72843 7.63973 3.85599 7.58689 3.98901 7.58689H4.00388C4.10239 7.58981 4.19786 7.62169 4.27835 7.67855C4.35885 7.73541 4.42081 7.81472 4.4565 7.90658C4.49219 7.99844 4.50003 8.09878 4.47903 8.19507C4.45803 8.29136 4.40913 8.37933 4.33843 8.44799C4.26773 8.51665 4.17837 8.56296 4.08151 8.58114C3.98465 8.59931 3.88458 8.58855 3.7938 8.55019C3.70302 8.51183 3.62555 8.44758 3.57107 8.36546C3.51659 8.28333 3.48752 8.18698 3.48747 8.08843V8.08843ZM4.05064 11.6396C3.83195 10.8736 3.76339 10.0726 3.84875 9.28064L4.93045 8.80035C5.04124 8.75103 5.12801 8.65987 5.17181 8.54679C5.21561 8.43371 5.21288 8.30789 5.16422 8.19681L4.94108 7.69315H5.81664V11.6396H4.05064ZM6.25655 15.6646C6.1289 15.6563 6.00919 15.5997 5.92172 15.5064C5.83426 15.413 5.78558 15.2899 5.78558 15.162C5.78558 15.0341 5.83426 14.9109 5.92172 14.8176C6.00919 14.7243 6.1289 14.6677 6.25655 14.6594H6.27142C6.3991 14.6694 6.51818 14.7276 6.60443 14.8223C6.69069 14.917 6.73765 15.0409 6.73575 15.169C6.73386 15.297 6.68325 15.4196 6.59423 15.5116C6.50521 15.6037 6.38446 15.6584 6.25655 15.6646V15.6646ZM13.6946 15.688C13.6258 15.6924 13.5569 15.6828 13.492 15.6595C13.4272 15.6363 13.3678 15.6 13.3175 15.5529C13.2672 15.5058 13.2271 15.4489 13.1997 15.3856C13.1724 15.3224 13.1582 15.2543 13.1582 15.1854C13.1582 15.1165 13.1724 15.0483 13.1997 14.9851C13.2271 14.9219 13.2672 14.865 13.3175 14.8178C13.3678 14.7707 13.4272 14.7344 13.492 14.7112C13.5569 14.688 13.6258 14.6783 13.6946 14.6828H13.7073C13.835 14.6925 13.9541 14.7506 14.0405 14.845C14.1269 14.9395 14.1741 15.0633 14.1725 15.1914C14.1709 15.3194 14.1206 15.442 14.0318 15.5342C13.943 15.6265 13.8224 15.6814 13.6946 15.688V15.688ZM14.4065 14.2769L13.3439 14.0474C13.225 14.0221 13.101 14.0451 12.999 14.1113C12.897 14.1774 12.8254 14.2813 12.7999 14.4001L12.5512 15.5753C11.7415 15.9423 10.862 16.1302 9.97301 16.1262C9.08397 16.1222 8.20628 15.9263 7.39988 15.552L7.14698 14.3768C7.13463 14.3175 7.11065 14.2614 7.07643 14.2115C7.0422 14.1616 6.99842 14.1191 6.94761 14.0862C6.8968 14.0534 6.83999 14.031 6.78046 14.0203C6.72093 14.0096 6.65987 14.0109 6.60082 14.024L5.56162 14.2365C5.36933 14.0359 5.19044 13.823 5.02608 13.5989H10.0776C10.1328 13.5989 10.1711 13.5989 10.1711 13.5373V11.7649C10.1711 11.7139 10.1328 11.7033 10.0776 11.7033H8.58996V10.5706H10.1881C10.3326 10.5706 10.968 10.6131 11.1699 11.4207C11.2315 11.6693 11.3824 12.4832 11.4674 12.7404C11.563 13.0315 11.9477 13.6117 12.36 13.6117H14.976C14.8012 13.8465 14.6102 14.0688 14.4044 14.2769H14.4065ZM8.60059 8.90023V7.73565H10.6854C10.7937 7.73565 11.4462 7.86104 11.4462 8.34982C11.4462 8.7536 10.9446 8.90023 10.5345 8.90023H8.60059ZM16.164 10.407H15.5265C15.4648 10.407 15.4393 10.4473 15.4393 10.509V10.8001C15.4393 11.4844 15.0525 11.6353 14.7125 11.6714C14.3725 11.7076 14.0389 11.5354 13.9878 11.3399C13.7987 10.2773 13.4821 10.0414 12.9805 9.63979C13.6032 9.24451 14.2556 8.66222 14.2556 7.88441C14.2556 7.03435 13.6776 6.51369 13.2865 6.25442C12.8874 6.00149 12.4301 5.85515 11.9583 5.82939H5.39798C6.30449 4.81639 7.51982 4.13067 8.85561 3.8785L9.62704 4.68818C9.71012 4.77378 9.82351 4.82331 9.94276 4.82609C10.062 4.82887 10.1776 4.78469 10.2646 4.70306L11.1316 3.8785C12.013 4.04376 12.8479 4.39892 13.5782 4.91931C14.3085 5.4397 14.9167 6.11284 15.3607 6.89197L14.7678 8.22869C14.7191 8.33976 14.7164 8.46559 14.7602 8.57867C14.804 8.69175 14.8908 8.78291 15.0015 8.83223L16.1406 9.33802C16.179 9.69301 16.1868 10.0506 16.164 10.407V10.407ZM15.9515 8.61759C15.8238 8.60928 15.7041 8.55272 15.6167 8.45938C15.5292 8.36604 15.4805 8.24291 15.4805 8.11499C15.4805 7.98707 15.5292 7.86395 15.6167 7.7706C15.7041 7.67726 15.8238 7.6207 15.9515 7.61239H15.9664C16.094 7.62238 16.2131 7.68063 16.2994 7.77529C16.3856 7.86995 16.4326 7.99392 16.4307 8.12197C16.4288 8.25003 16.3782 8.37255 16.2892 8.46462C16.2002 8.55669 16.0794 8.61139 15.9515 8.61759V8.61759Z" fill="white"/>
</svg>

<svg xmlns="http://www.w3.org/2000/svg" viewBox="0 0 20 20">
  <rect width="100%" height="100%"/>
  <path fill="#fff" d="m18.36 9.74-.79-.48.68-.64a.3.3 0 0 0-.1-.51l-.86-.33.54-.74a.3.3 0 0 0-.2-.49l-.9-.14.37-.84a.3.3 0 0 0-.02-.3.3.3 0 0 0-.28-.13l-.92.03.21-.9a.3.3 0 0 0-.37-.36l-.9.21.04-.92a.3.3 0 0 0-.43-.3l-.84.4-.15-.92a.3.3 0 0 0-.48-.2l-.75.54-.32-.86a.3.3 0 0 0-.52-.1l-.63.67-.48-.79a.3.3 0 0 0-.52 0l-.48.79-.64-.67a.3.3 0 0 0-.28-.1.31.31 0 0 0-.23.2l-.32.86-.75-.54a.3.3 0 0 0-.48.2l-.15.91-.83-.38a.31.31 0 0 0-.3.02.3.3 0 0 0-.14.27l.03.92-.9-.21a.3.3 0 0 0-.36.37l.21.9-.92-.04a.3.3 0 0 0-.32.28c0 .06 0 .1.03.16l.38.83-.9.15a.3.3 0 0 0-.2.48l.53.75-.86.32a.31.31 0 0 0-.19.39c.02.05.05.1.09.13l.67.63-.79.48a.3.3 0 0 0 0 .52l.79.49-.67.63a.31.31 0 0 0-.1.28.3.3 0 0 0 .2.23l.86.32-.54.75a.3.3 0 0 0 .2.48l.91.15-.38.84a.31.31 0 0 0 .02.3.3.3 0 0 0 .27.13l.92-.03-.21.9a.3.3 0 0 0 .37.36l.9-.2-.04.91a.3.3 0 0 0 .44.3l.83-.39.15.9a.31.31 0 0 0 .19.25.3.3 0 0 0 .3-.03l.74-.54.32.85a.31.31 0 0 0 .23.2.3.3 0 0 0 .29-.1l.63-.67.49.79a.3.3 0 0 0 .52 0l.49-.79.63.67a.31.31 0 0 0 .43.03.3.3 0 0 0 .09-.13l.32-.85.75.54a.3.3 0 0 0 .3.03.31.31 0 0 0 .18-.23l.15-.9.83.37a.3.3 0 0 0 .4-.14.3.3 0 0 0 .03-.15l-.03-.92.9.21a.3.3 0 0 0 .36-.37l-.21-.9.92.04a.3.3 0 0 0 .29-.42l-.38-.84.9-.15a.31.31 0 0 0 .24-.2.3.3 0 0 0-.03-.3l-.54-.75.85-.32a.3.3 0 0 0 .1-.52l-.67-.63.79-.49a.3.3 0 0 0 0-.52v.01Zm-8.38-6.7H10a.51.51 0 1 1-.01 0h-.01ZM3.48 8.1a.5.5 0 0 1 .5-.5H4a.5.5 0 1 1-.51.5Zm.57 3.55a6.18 6.18 0 0 1-.2-2.36l1.08-.48a.46.46 0 0 0 .23-.6l-.22-.5h.88v3.94H4.05Zm2.2 4.02a.5.5 0 0 1 0-1h.02a.5.5 0 0 1-.01 1Zm7.44.03a.5.5 0 1 1 0-1h.02a.5.5 0 0 1-.02 1Zm.72-1.41-1.07-.23a.46.46 0 0 0-.54.35l-.25 1.18a6.18 6.18 0 0 1-5.15-.03l-.25-1.17a.46.46 0 0 0-.55-.36l-1.04.22c-.2-.2-.37-.42-.53-.64h5.05c.05 0 .1 0 .1-.06v-1.78c0-.05-.05-.06-.1-.06H8.59v-1.13h1.6c.14 0 .78.04.98.85.06.25.21 1.06.3 1.32.1.3.48.87.89.87h2.62c-.18.24-.37.46-.58.67ZM8.6 8.9V7.74h2.08c.1 0 .76.12.76.61 0 .4-.5.55-.92.55H8.6Zm7.55 1.5h-.63c-.07 0-.1.05-.1.1v.3c0 .68-.38.84-.72.87-.34.04-.67-.13-.72-.33-.2-1.06-.5-1.3-1.01-1.7.62-.4 1.28-.98 1.28-1.76 0-.85-.58-1.37-.97-1.63-.4-.25-.86-.4-1.33-.42H5.4a6.18 6.18 0 0 1 3.46-1.95l.77.8a.45.45 0 0 0 .63.02l.87-.82a6.18 6.18 0 0 1 4.23 3.01l-.6 1.34a.46.46 0 0 0 .24.6l1.14.5c.04.36.05.72.02 1.08Zm-.2-1.78a.5.5 0 0 1 0-1 .5.5 0 0 1 0 1Z"/>
</svg>
